X: 13676
T: Fool's
R: jig
M: 6/8
K: Dmajor
D>ED>F A>F (3DEF|G>FG>B A>F (3DEF|G2 B>G F2 A>F|E>DE>F E>GF>E|
D>ED>F A>F (3DEF|G>FG>B A>F D2|d>cd>B A>GF>E|F2 D2 D2:|
.d>AF>A B>AF>A|d>AF>A B>AG>F|G2 e>G F2 d>F|E>DE>F E>GF>E|
D>ED>F A>F (3DEF|G>FG>B A>F D2|d>cd>B A>GF>E|F2 D2 D2:|

